X: 1192
T: The Hag With The Money (A81)
N: page A81
N: heptatonic
R: jig
M: 6/8
L: 1/8
F:http://thesession.org/tunes/351	 2013-05-14 203057 UT
K: Dmix
|:"D"Adc "A"A2A | AGE GFG |"D" Adc "A"A2A |GEA GED |
Adc A2A | AGE GFG | AGE cde | dcA GED:||
K:DMaj
|:"A"ABc "D"d2e | fed "A"edc | ABc "D"dcd |"A"eag edc |
ABc "D"d2e | fed efg |"A" age cde |"D" dcA GED :||
